static/oneday.svg

<svg width="76" height="76" viewBox="0 0 76 76" fill="none" xmlns="http://www.w3.org/2000/svg">
<g clip-path="url(#clip0)">
<path d="M42.7376 49.0452L42.6362 48.7412L42.7376 49.0452L42.8136 49.2985L42.7376 49.0452Z" fill="white"/>
<path d="M33.8203 47.0188C33.8456 47.0188 33.871 47.0188 33.8963 47.0441C33.871 47.0441 33.8456 47.0188 33.8203 47.0188Z" fill="white"/>
<path d="M48.2349 45.5493L48.8175 46.74L49.4509 48.0573L48.2349 45.5493Z" fill="white"/>
<path d="M76 0H0V16.0613L17.1 25.4347C16.9987 26.22 16.9733 27.0307 16.9733 27.8413C16.9733 32.148 18.2653 36.3027 20.672 39.8493C20.824 40.0773 20.976 40.3053 21.1533 40.5333C21.7613 41.344 22.3947 42.1293 23.1293 42.864C23.94 43.7 24.8267 44.4853 25.764 45.1693C26.7013 45.8533 27.664 46.4867 28.6773 47.0187C29.9187 47.652 31.1853 48.184 32.528 48.5893L32.9333 46.816C30.7547 46.284 29.1587 45.676 28.5 45.4227C28.2973 45.3467 28.196 45.296 28.196 45.296C28.196 45.296 28.2213 45.3213 28.2973 45.3467C29.3867 45.8027 39.7733 49.7293 49.1467 39.4187C59.1533 28.3987 51.3253 13.984 51.3253 13.984C51.3253 13.984 63.46 24.852 53.9093 40.052C52.6173 42.104 51.1227 43.6493 49.476 44.764C49.324 44.8653 49.1973 44.9667 49.0453 45.0427C49.1973 44.9413 49.324 44.8653 49.476 44.764L50.1347 45.904C51.452 45.1187 52.5667 44.1307 53.5293 42.9653C53.96 42.5347 53.8333 42.636 54.2387 42.1547C55.4293 40.7107 56.468 39.0387 57.228 37.3413C58.14 35.2893 58.6973 33.06 58.8747 30.7547C58.9253 30.172 58.9507 29.6147 58.9507 29.032C58.9507 26.8533 58.6213 24.7 57.988 22.6733L76 9.88V0Z" fill="white"/>
<path d="M0 31.2361V31.2614L1.31733 31.8188L0 31.2361Z" fill="#0FC6EF"/>
<path d="M57.9883 22.6732C58.6216 24.7252 58.951 26.8532 58.951 29.0319C58.951 29.6145 58.9256 30.1972 58.8749 30.7545L76.0003 19.1519V16.8465V9.87988L57.9883 22.6732Z" fill="#31A2FF"/>
<path d="M20.6467 39.8495C18.24 36.3029 16.948 32.1482 16.948 27.8415C16.948 27.0309 16.9987 26.2202 17.0747 25.4349L0 16.0615V19.8362V31.2362L1.31733 31.8189L20.6467 39.8495Z" fill="#31A2FF"/>
<path d="M25.7387 45.1694L21.66 48.0068L4.7627 59.9134C5.54803 59.9134 6.61203 60.3694 7.75203 61.1801L25.1814 49.3494L28.652 46.9934C27.6387 46.4614 26.6507 45.8534 25.7387 45.1694Z" fill="#31A2FF"/>
<path d="M30.805 55.404L31.9957 50.616L30.6784 51.452L21.0264 57.7853L30.805 55.404Z" fill="#31A2FF"/>
<path d="M65.6645 54.8721C64.5245 56.0881 63.6885 57.4054 63.2578 58.5201L65.0311 61.1548L65.2338 61.2561C66.4498 60.8508 67.9951 59.8121 69.3631 58.3174C71.6938 55.8094 72.7578 53.0228 71.7445 52.0601C71.0351 51.4014 69.4898 51.8068 67.8178 52.9721C67.7925 52.9974 67.7418 53.0228 67.7165 53.0481C67.0071 53.5801 66.3231 54.1628 65.6645 54.8721Z" fill="white"/>
<path d="M65.1069 61.3066C65.1323 61.3066 65.1576 61.2812 65.2083 61.2812L65.1069 61.3066Z" fill="white"/>
<path d="M29.7161 15.0479C25.3841 13.7812 20.5201 17.8852 18.8228 24.2185C17.1508 30.5519 19.2788 36.7332 23.5855 37.9999C27.9175 39.2665 32.7815 35.1625 34.4788 28.8292C36.1761 22.4959 34.0481 16.3145 29.7161 15.0479ZM31.8441 28.0439C30.5521 32.9079 26.8028 36.0492 23.5095 35.0865C20.1908 34.1239 18.5695 29.3612 19.8615 24.5225C21.1535 19.6585 24.9028 16.5172 28.1961 17.4799C31.5148 18.4679 33.1361 23.2052 31.8441 28.0439Z" fill="#0F89FF"/>
<path d="M21.7613 25.0798C20.8746 28.3985 21.9893 31.6411 24.2439 32.2998C26.4986 32.9585 29.0573 30.8051 29.9439 27.4865C30.8306 24.1678 29.7159 20.9251 27.4613 20.2665C25.2066 19.6078 22.6479 21.7611 21.7613 25.0798Z" fill="#0F89FF"/>
<path d="M65.1068 61.3066L65.2081 61.2813H65.2334H65.2081L65.0308 61.1799L65.1068 61.3066Z" fill="#0FC6EF"/>
<path d="M52.5664 50.1348L49.805 50.7934L43.8264 52.2374L42.6104 52.5414L50.3877 54.6948L59.229 52.5161L52.5664 50.1348Z" fill="#0F89FF"/>
<path d="M49.1465 39.3931C59.1531 28.3731 51.3251 13.9584 51.3251 13.9584C49.6025 12.1091 48.1585 11.1211 48.1585 11.1211C48.1585 11.1211 55.1505 27.2331 46.2078 36.9611C35.9731 48.0824 23.6611 41.8758 23.6611 41.8758C24.5985 42.9904 25.5611 44.1558 28.2971 45.3464C29.4118 45.7771 39.7731 49.7038 49.1465 39.3931Z" fill="#0F89FF"/>
<path d="M42.6101 52.5413L16.7195 58.8493L15.9595 60.5973L47.2461 55.4039L50.3875 54.6946L42.6101 52.5413Z" fill="white"/>
<path d="M31.5904 9.90538L28.9304 10.5134C28.3477 10.64 27.8917 11.1467 27.917 11.9067C27.917 12.6667 28.3984 12.9707 28.981 12.8187L31.641 12.2107C32.2237 12.084 32.6797 11.5774 32.6544 10.8174C32.629 10.0827 32.173 9.77872 31.5904 9.90538Z" fill="#0F89FF"/>
<path d="M23.104 42.8641C22.3947 42.1295 21.736 41.3441 21.128 40.5335C20.9507 40.3055 20.7987 40.0775 20.6467 39.8495L1.31733 31.8188L0 31.2615V39.6975L21.66 48.0068L25.7387 45.1695C24.8013 44.4601 23.9147 43.7001 23.104 42.8641Z" fill="#0F89FF"/>
<path d="M58.8997 30.7548C58.7223 33.0601 58.165 35.2641 57.253 37.3414C56.493 39.0388 55.4543 40.7108 54.2637 42.1548L75.9997 28.7028V26.2708V19.1521L58.8997 30.7548Z" fill="#0F89FF"/>
<path d="M65.6641 54.872C66.3228 54.1627 67.0068 53.5547 67.6908 53.0733C67.7161 53.048 67.7668 53.0227 67.7921 52.9973C69.1094 52.0853 70.3508 51.6293 71.1614 51.8067L53.5294 42.9653C52.5668 44.1307 51.4268 45.1187 50.1348 45.904L52.5668 50.1347L59.2294 52.5413L63.2321 58.5453C63.6881 57.4053 64.5241 56.1133 65.6641 54.872Z" fill="#31A2FF"/>
<path d="M63.3843 58.7227L63.4856 58.8747L63.3843 58.7227Z" fill="#31A2FF"/>
<path d="M43.7003 52.2879L43.067 50.1599L42.7123 49.0199L42.231 47.4492C39.6217 47.7785 37.0377 47.6012 34.8337 47.1959C34.1497 47.0692 33.5163 46.9425 32.9337 46.7905L32.503 48.5385L31.9963 50.5652L30.8057 55.3785L30.9577 55.3532L34.4537 54.4919L37.0377 53.8585L42.611 52.4905L43.7257 52.2119L43.7003 52.2879Z" fill="#0F89FF"/>
<path d="M34.8331 47.2214C37.0625 47.6014 39.6211 47.8041 42.2305 47.4747L42.7118 49.0454L43.0665 50.1601L43.6745 52.2627L50.6665 50.5654L48.7918 46.7147L48.2091 45.5241C48.6398 45.2961 49.0451 45.0174 49.4758 44.7387C51.0971 43.5987 52.6171 42.0534 53.9091 40.0267C63.4598 24.8267 51.3251 13.9587 51.3251 13.9587C51.3251 13.9587 59.1531 28.3734 49.1465 39.3934C39.7731 49.7041 29.3865 45.7774 28.2971 45.3214C28.2465 45.2961 28.1958 45.2707 28.1958 45.2707C28.1958 45.2707 28.2971 45.3214 28.4998 45.3974C29.3105 45.7521 31.7171 46.6641 34.8331 47.2214Z" fill="#0060D3"/>
<path d="M47.2465 55.4043L48.3865 59.8123L13.2998 66.7536L15.9598 60.5976L47.2465 55.4043Z" fill="#31A2FF"/>
<path d="M50.3883 54.6948L47.247 55.4042L48.387 59.8122L13.3003 66.7535L12.591 68.4002C12.5657 68.5268 12.515 68.6282 12.4643 68.7295C12.4137 68.7802 12.3883 68.8562 12.3377 68.9068C12.3123 68.9322 12.2617 68.9828 12.211 69.0082C12.0843 69.0842 11.9577 69.1348 11.8057 69.1855L53.5297 63.0548L50.3883 54.6948Z" fill="#0F89FF"/>
<path d="M28.652 46.9934L25.1813 49.3494L7.75195 61.1801C7.92929 61.3067 8.08129 61.4334 8.25862 61.5601C8.51195 61.7627 8.76529 61.9907 9.01862 62.2187C9.27195 62.4467 9.52529 62.7001 9.77862 62.9534C10.108 63.2827 10.412 63.6374 10.6906 63.9921C10.8426 64.1947 10.9946 64.3721 11.1466 64.5747C11.704 65.3347 12.1093 66.0694 12.3626 66.7281C12.388 66.7787 12.4133 66.8547 12.4386 66.9054C12.5906 67.3107 12.6666 67.6907 12.6413 68.0201C12.6413 68.1721 12.616 68.2987 12.5906 68.4254L16.72 58.8747L21.052 57.8107L30.704 51.4774L32.0213 50.6161L32.528 48.5894C31.16 48.1587 29.868 47.6521 28.652 46.9934Z" fill="#83CDFF"/>
<path d="M12.4636 68.7291C12.5903 68.5264 12.641 68.2984 12.641 68.0198C12.641 67.6904 12.565 67.3104 12.4383 66.9051C12.185 66.1958 11.7543 65.3851 11.1463 64.5491C10.7663 64.0171 10.3103 63.4598 9.77831 62.9278C9.11964 62.2438 8.41031 61.6358 7.75164 61.1798C6.61164 60.3691 5.54764 59.9131 4.76231 59.9131C4.40764 59.9131 4.10364 60.0144 3.90098 60.2171C3.87564 60.2424 3.87564 60.2678 3.85031 60.2678C3.03964 61.2304 4.17964 63.8398 6.45964 66.1704C8.68898 68.4758 11.2223 69.6918 12.2356 68.9824C12.2863 68.9571 12.3116 68.9318 12.3623 68.8811C12.3623 68.8558 12.413 68.7798 12.4636 68.7291Z" fill="white"/>
<path d="M48.2349 45.5492L50.6922 50.5906L52.5669 50.1346L49.4762 44.7639C49.0709 45.0426 48.6655 45.2959 48.2349 45.5492Z" fill="#0F89FF"/>
<path d="M54.264 42.1549C53.884 42.6109 53.9853 42.5095 53.5547 42.9655L71.1867 51.8069C71.4147 51.8575 71.592 51.9335 71.744 52.0855C72.7573 53.0482 71.6933 55.8349 69.3627 58.3429C67.9693 59.8375 66.4493 60.8762 65.2333 61.2815H65.208C65.1827 61.2815 65.1573 61.3069 65.1067 61.3069V61.2815L65.0307 61.1549L63.2573 58.5202L59.2547 52.5162L50.4133 54.6949L53.5293 63.0549L11.78 69.1602C10.5893 69.3882 8.38533 68.2229 6.40933 66.1709C4.12933 63.8149 2.98933 61.2056 3.8 60.2682C3.82533 60.2429 3.82533 60.2175 3.85067 60.2175C4.05333 60.0149 4.35733 59.9135 4.712 59.9135L21.6093 48.0069L0 39.6975V63.9415V75.9749V76.0002H76V28.7029L54.264 42.1549Z" fill="#0060D3"/>
<path d="M12.0083 69.084C12.0843 69.0587 12.135 69.0333 12.211 68.9827C12.135 69.0333 12.0843 69.0587 12.0083 69.084Z" fill="#0060D3"/>
</g>
<defs>
<clipPath id="clip0">
<rect width="76" height="76" fill="white"/>
</clipPath>
</defs>
</svg>

<svg width="76" height="76" fill="none" xmlns="http://www.w3.org/2000/svg"><g clip-path="url(#clip0)"><path d="M42.738 49.045l-.102-.304.102.304.076.253-.076-.253zM33.82 47.019c.026 0 .051 0 .076.025-.025 0-.05-.025-.076-.025zM48.235 45.55l.583 1.19.633 1.317-1.216-2.508z" fill="#fff"/><path d="M76 0H0v16.061l17.1 9.374c-.101.785-.127 1.596-.127 2.406 0 4.307 1.292 8.462 3.699 12.008.152.228.304.456.481.684.608.811 1.242 1.596 1.976 2.331.811.836 1.698 1.621 2.635 2.305.937.684 1.9 1.318 2.913 1.85a23.164 23.164 0 003.851 1.57l.405-1.773a35.64 35.64 0 01-4.433-1.393 3.5 3.5 0 01-.304-.127s.025.025.101.05c1.09.457 11.476 4.383 20.85-5.927 10.006-11.02 2.178-25.435 2.178-25.435S63.46 24.852 53.91 40.052c-1.292 2.052-2.786 3.597-4.433 4.712-.152.101-.279.203-.43.279.151-.102.278-.178.43-.279l.659 1.14a13.032 13.032 0 003.394-2.939c.431-.43.304-.329.71-.81a21.519 21.519 0 002.989-4.814 19.993 19.993 0 001.647-6.586c.05-.583.076-1.14.076-1.723 0-2.179-.33-4.332-.963-6.359L76 9.88V0z" fill="#fff"/><path d="M0 31.236v.025l1.317.558L0 31.236z" fill="#0FC6EF"/><path d="M57.988 22.673c.634 2.052.963 4.18.963 6.359 0 .582-.025 1.165-.076 1.723L76 19.151V9.88L57.988 22.673zM20.647 39.85a21.324 21.324 0 01-3.699-12.009c0-.81.05-1.62.127-2.406L0 16.062v15.174l1.317.583 19.33 8.03zM25.739 45.17l-4.079 2.837L4.763 59.913c.785 0 1.849.456 2.989 1.267l17.43-11.83 3.47-2.357a21.602 21.602 0 01-2.913-1.824zM30.805 55.404l1.19-4.788-1.317.836-9.652 6.333 9.779-2.381z" fill="#31A2FF"/><path d="M65.665 54.872c-1.14 1.216-1.977 2.533-2.407 3.648l1.773 2.635.203.101c1.216-.405 2.761-1.444 4.13-2.939 2.33-2.508 3.394-5.294 2.38-6.257-.709-.659-2.254-.253-3.926.912-.025.025-.076.05-.102.076a15.136 15.136 0 00-2.051 1.824zM65.107 61.307c.025 0 .05-.026.101-.026l-.101.026z" fill="#fff"/><path d="M29.716 15.048c-4.332-1.267-9.196 2.837-10.893 9.17-1.672 6.334.456 12.515 4.762 13.782 4.332 1.267 9.197-2.837 10.894-9.17 1.697-6.334-.43-12.515-4.763-13.782zm2.128 12.996c-1.292 4.864-5.041 8.005-8.335 7.043-3.318-.963-4.94-5.726-3.648-10.565 1.293-4.863 5.042-8.005 8.335-7.042 3.319.988 4.94 5.725 3.648 10.564z" fill="#0F89FF"/><path d="M21.761 25.08c-.886 3.319.228 6.561 2.483 7.22 2.255.659 4.813-1.495 5.7-4.813.887-3.32-.228-6.562-2.483-7.22-2.254-.66-4.813 1.494-5.7 4.813z" fill="#0F89FF"/><path d="M65.107 61.307l.101-.026h.025-.025l-.177-.101.076.127z" fill="#0FC6EF"/><path d="M52.566 50.135l-2.761.658-5.979 1.444-1.216.304 7.778 2.154 8.841-2.179-6.663-2.381zM49.147 39.393c10.006-11.02 2.178-25.435 2.178-25.435-1.723-1.849-3.167-2.837-3.167-2.837s6.992 16.112-1.95 25.84C35.973 48.082 23.66 41.876 23.66 41.876c.938 1.114 1.9 2.28 4.636 3.47 1.115.431 11.476 4.358 20.85-5.953z" fill="#0F89FF"/><path d="M42.61 52.541L16.72 58.85l-.76 1.748 31.286-5.193 3.142-.71-7.778-2.153z" fill="#fff"/><path d="M31.59 9.905l-2.66.608c-.582.127-1.038.634-1.013 1.394 0 .76.481 1.064 1.064.912l2.66-.608c.583-.127 1.039-.634 1.013-1.394-.025-.734-.481-1.038-1.064-.912zM23.104 42.864a24.642 24.642 0 01-1.976-2.33c-.177-.228-.33-.456-.481-.684l-19.33-8.031L0 31.262v8.435l21.66 8.31 4.079-2.837a22.895 22.895 0 01-2.635-2.306zM58.9 30.755a20.15 20.15 0 01-1.647 6.586 21.519 21.519 0 01-2.99 4.814L76 28.703v-9.551L58.9 30.755z" fill="#0F89FF"/><path d="M65.664 54.872a13.09 13.09 0 012.027-1.799c.025-.025.076-.05.101-.076 1.317-.912 2.559-1.368 3.37-1.19l-17.633-8.842a13.454 13.454 0 01-3.394 2.939l2.432 4.23 6.662 2.407 4.003 6.004c.456-1.14 1.292-2.432 2.432-3.673zM63.384 58.723l.102.152-.102-.152z" fill="#31A2FF"/><path d="M43.7 52.288l-.633-2.128-.355-1.14-.481-1.57c-2.61.328-5.193.151-7.397-.254a27.381 27.381 0 01-1.9-.405l-.431 1.748-.507 2.026-1.19 4.814.152-.026 3.496-.861 2.584-.633 5.573-1.369 1.115-.278-.026.076z" fill="#0F89FF"/><path d="M34.833 47.221c2.23.38 4.788.583 7.398.254l.48 1.57.355 1.115.608 2.103 6.992-1.698-1.874-3.85-.583-1.19c.43-.229.836-.508 1.267-.786 1.621-1.14 3.141-2.686 4.433-4.712 9.55-15.2-2.584-26.068-2.584-26.068s7.828 14.414-2.178 25.434c-9.374 10.311-19.76 6.384-20.85 5.928l-.101-.05s.101.05.304.126c.81.355 3.217 1.267 6.333 1.824z" fill="#0060D3"/><path d="M47.246 55.404l1.14 4.408L13.3 66.754l2.66-6.156 31.286-5.194z" fill="#31A2FF"/><path d="M50.388 54.695l-3.141.71 1.14 4.407L13.3 66.754l-.709 1.646a1.27 1.27 0 01-.127.33c-.05.05-.076.126-.126.177-.026.025-.076.076-.127.101a1.963 1.963 0 01-.405.178l41.724-6.131-3.142-8.36z" fill="#0F89FF"/><path d="M28.652 46.993l-3.47 2.356L7.751 61.18c.177.127.33.253.507.38.253.203.506.43.76.659.253.228.506.481.76.734.329.33.633.684.912 1.04.152.202.304.38.456.582.557.76.962 1.494 1.216 2.153.025.05.05.127.076.177.152.406.228.786.202 1.115 0 .152-.025.279-.05.405l4.129-9.55 4.332-1.064 9.652-6.334 1.317-.86.507-2.028c-1.368-.43-2.66-.937-3.876-1.596z" fill="#83CDFF"/><path d="M12.464 68.73c.126-.204.177-.432.177-.71 0-.33-.076-.71-.203-1.115-.253-.71-.684-1.52-1.292-2.356a12.92 12.92 0 00-1.368-1.621 13.837 13.837 0 00-2.026-1.748c-1.14-.81-2.204-1.267-2.99-1.267-.354 0-.658.101-.861.304-.025.025-.025.05-.05.05-.811.963.329 3.573 2.609 5.903 2.229 2.306 4.762 3.522 5.776 2.812.05-.025.076-.05.126-.1 0-.026.051-.102.102-.153z" fill="#fff"/><path d="M48.235 45.55l2.457 5.04 1.875-.455-3.09-5.371c-.406.279-.811.532-1.242.785z" fill="#0F89FF"/><path d="M54.264 42.155c-.38.456-.279.355-.71.81l17.633 8.842c.228.05.405.127.557.279 1.013.962-.05 3.749-2.381 6.257-1.394 1.494-2.914 2.533-4.13 2.938h-.025c-.025 0-.05.026-.101.026v-.026l-.076-.126-1.774-2.635-4.002-6.004-8.842 2.179 3.116 8.36L11.78 69.16c-1.19.228-3.395-.937-5.37-2.99-2.28-2.355-3.42-4.964-2.61-5.902.025-.025.025-.05.05-.05.203-.203.507-.305.862-.305l16.897-11.906L0 39.697V76h76V28.703L54.264 42.155zM12.008 69.084z" fill="#0060D3"/></g><defs><clipPath id="clip0"><path fill="#fff" d="M0 0h76v76H0z"/></clipPath></defs></svg>
